X: 5809
T: Caledonian Wedding Anniversary
R: waltz
M: 3/4
K: Dmajor
A2|D3 FA2|d4c2|B2G2B2|A4Bc|
d3 ed2|d2A2F2|G2B,2D2|C2E2A,2|
D3 FA2|d4c2|B2G2B2|A4GF|
G3 B,D2|C2B,2C2|D6|D4f2|
a3 fd2|d4c2|B2g2B2|A4FG|
A2d2f2|a2g2f2|e2c2A2|G2F2E2|
D3 FA2|d4c2|B2G2B2|A4GF|
G3 B,D2|C2B,2C2|D6|D4z2|

